svgs/light/square-0.svg

<svg xmlns="http://www.w3.org/2000/svg" viewBox="0 0 448 512"><!-- Font Awesome Pro 6.0.0-alpha2 by @fontawesome - https://fontawesome.com License - https://fontawesome.com/license (Commercial License) --><path d="M224 128C171.062 128 128 171.062 128 224V288C128 340.938 171.062 384 224 384S320 340.938 320 288V224C320 171.062 276.938 128 224 128ZM288 288C288 323.281 259.281 352 224 352S160 323.281 160 288V224C160 188.719 188.719 160 224 160S288 188.719 288 224V288ZM384 32H64C28.654 32 0 60.654 0 96V416C0 451.346 28.654 480 64 480H384C419.346 480 448 451.346 448 416V96C448 60.654 419.346 32 384 32ZM416 416C416 433.645 401.645 448 384 448H64C46.355 448 32 433.645 32 416V96C32 78.355 46.355 64 64 64H384C401.645 64 416 78.355 416 96V416Z"/></svg>

<svg xmlns="http://www.w3.org/2000/svg" viewBox="0 0 448 512"><!--! Font Awesome Pro 6.0.0-alpha3 by @fontawesome - https://fontawesome.com License - https://fontawesome.com/license (Commercial License) --><path d="M224 128C171.1 128 128 171.1 128 224v64c0 52.94 43.06 96 96 96s96-43.06 96-96V224C320 171.1 276.9 128 224 128zM288 288c0 35.28-28.72 64-64 64s-64-28.72-64-64V224c0-35.28 28.72-64 64-64s64 28.72 64 64V288zM384 32H64C28.65 32 0 60.65 0 96v320c0 35.35 28.65 64 64 64h320c35.35 0 64-28.65 64-64V96C448 60.65 419.3 32 384 32zM416 416c0 17.64-14.36 32-32 32H64c-17.64 0-32-14.36-32-32V96c0-17.64 14.36-32 32-32h320c17.64 0 32 14.36 32 32V416z"/></svg>
